X:135
T:Rob Donn Mackay the Poet
T:Rob Donn
R:Air
S:Simon Fraser Collection
N:No.24
O:Scottish
M:C
L:1/8
Q:1/4=120
K:F
F2 ED F2 DC|A2 A^G A2 z2|AdcB AcBc|A2 G2 F2 z2|(F2 F)G A2 Ac|
AGFG A3G|F3E D/E/F/G/ A>G|F2 E2 F4||^C2 D2 A,4|A2 c>d f2d2|
dcAG F2 AG|F2 E2 F4|^C2 D2 A,4|A2 c2 f3d|cBAG F2 AG|F2 E2 D4||

